P3
16 16
255
247 249 252 247 249 252 89 76 240 89 76 240 89 76 240 247 249 252 247 249 252 247 249 252 247 249 252 247 249 252 247 249 252 89 76 240 89 76 240 89 76 240 247 249 252 247 249 252
247 249 252 247 249 252 89 76 240 89 76 240 89 76 240 247 249 252 247 249 252 247 249 252 247 249 252 247 249 252 247 249 252 89 76 240 89 76 240 89 76 240 247 249 252 247 249 252
247 249 252 247 249 252 89 76 240 89 76 240 89 76 240 89 76 240 247 249 252 247 249 252 247 249 252 247 249 252 247 249 252 89 76 240 89 76 240 89 76 240 247 249 252 247 249 252
247 249 252 247 249 252 89 76 240 89 76 240 89 76 240 89 76 240 89 76 240 247 249 252 247 249 252 247 249 252 247 249 252 89 76 240 89 76 240 89 76 240 247 249 252 247 249 252
247 249 252 247 249 252 89 76 240 89 76 240 89 76 240 89 76 240 89 76 240 247 249 252 247 249 252 247 249 252 247 249 252 89 76 240 89 76 240 89 76 240 247 249 252 247 249 252
247 249 252 247 249 252 89 76 240 89 76 240 89 76 240 89 76 240 89 76 240 89 76 240 247 249 252 247 249 252 247 249 252 89 76 240 89 76 240 89 76 240 247 249 252 247 249 252
247 249 252 247 249 252 89 76 240 89 76 240 89 76 240 247 249 252 89 76 240 89 76 240 89 76 240 247 249 252 247 249 252 89 76 240 89 76 240 89 76 240 247 249 252 247 249 252
247 249 252 247 249 252 89 76 240 89 76 240 89 76 240 247 249 252 89 76 240 89 76 240 89 76 240 247 249 252 247 249 252 89 76 240 89 76 240 89 76 240 247 249 252 247 249 252
247 249 252 247 249 252 89 76 240 89 76 240 89 76 240 247 249 252 247 249 252 89 76 240 89 76 240 89 76 240 247 249 252 89 76 240 89 76 240 89 76 240 247 249 252 247 249 252
247 249 252 247 249 252 89 76 240 89 76 240 89 76 240 247 249 252 247 249 252 89 76 240 89 76 240 89 76 240 247 249 252 89 76 240 89 76 240 89 76 240 247 249 252 247 249 252
247 249 252 247 249 252 89 76 240 89 76 240 89 76 240 247 249 252 247 249 252 89 76 240 89 76 240 89 76 240 89 76 240 89 76 240 89 76 240 89 76 240 247 249 252 247 249 252
247 249 252 247 249 252 89 76 240 89 76 240 89 76 240 247 249 252 247 249 252 247 249 252 247 249 252 89 76 240 89 76 240 89 76 240 89 76 240 89 76 240 247 249 252 247 249 252
247 249 252 247 249 252 89 76 240 89 76 240 89 76 240 247 249 252 247 249 252 247 249 252 247 249 252 89 76 240 89 76 240 89 76 240 89 76 240 89 76 240 247 249 252 247 249 252
247 249 252 247 249 252 89 76 240 89 76 240 89 76 240 247 249 252 247 249 252 247 249 252 247 249 252 247 249 252 89 76 240 89 76 240 89 76 240 89 76 240 247 249 252 247 249 252
247 249 252 247 249 252 89 76 240 89 76 240 89 76 240 247 249 252 247 249 252 247 249 252 247 249 252 247 249 252 247 249 252 89 76 240 89 76 240 89 76 240 247 249 252 247 249 252
247 249 252 247 249 252 89 76 240 89 76 240 89 76 240 247 249 252 247 249 252 247 249 252 247 249 252 247 249 252 247 249 252 89 76 240 89 76 240 89 76 240 247 249 252 247 249 252
